symbols/web/settings_suggest/materialsymbolsrounded/settings_suggest_wght700gradN25fill1_48px.svg

<svg xmlns="http://www.w3.org/2000/svg" height="48" width="48"><path d="M39.2 16q-.35 0-.6-.175t-.45-.525l-1.45-3.05-3.05-1.4q-.35-.2-.525-.45-.175-.25-.175-.65 0-.35.175-.625t.525-.475l3.05-1.4 1.45-3.1q.2-.35.45-.5.25-.15.6-.15t.625.15q.275.15.525.5l1.4 3.1 3.05 1.4q.35.2.525.475.175.275.175.625 0 .4-.175.65t-.525.45l-3.05 1.4-1.4 3.05q-.25.35-.525.525Q39.55 16 39.2 16Zm4.1 16.3q-.2 0-.4-.1t-.25-.3l-.8-1.75-1.75-.8q-.1-.05-.4-.65 0-.15.1-.375t.3-.325l1.75-.8.8-1.75q.05-.1.65-.35.2 0 .425.1.225.1.275.25l.8 1.75 1.7.8q.15.05.4.7 0 .2-.1.4t-.3.25l-1.7.8-.8 1.75q-.1.1-.7.4ZM16.75 45.4q-.9 0-1.55-.575t-.75-1.475l-.25-2.75q-.5.05-1.1-.2-.6-.25-.95-.6l-2.2.9q-.75.4-1.55.1-.8-.3-1.25-1L3.9 34.6q-.45-.75-.225-1.675t.975-1.475l2.15-1.3q-.25-.65-.25-1.075 0-.425.25-1.075l-2.15-1.35q-.75-.55-.975-1.45-.225-.9.225-1.65l3.25-5.2q.45-.7 1.25-1 .8-.3 1.55.05l2.2.95q.35-.4.95-.625.6-.225 1.1-.225l.25-2.75q.1-.9.75-1.475.65-.575 1.55-.575h6.15q.85 0 1.5.575t.8 1.475l.3 2.75q.45 0 1.025.225t1.025.625l2.1-.95q.75-.35 1.55-.025.8.325 1.25.975l3.25 5.2q.45.75.25 1.675t-.9 1.425L32.9 28q.2.65.2 1.075 0 .425-.2 1.075l2.15 1.3q.7.55.9 1.475.2.925-.25 1.675l-3.25 5.2q-.4.7-1.225 1-.825.3-1.575-.1l-2.1-.9q-.45.4-1.025.625-.575.225-1.025.175l-.3 2.75q-.15.9-.8 1.475-.65.575-1.5.575Zm3.1-10.3q2.55 0 4.275-1.725 1.725-1.725 1.725-4.325 0-2.55-1.725-4.3T19.8 23q-2.6 0-4.3 1.75-1.7 1.75-1.7 4.3 0 2.6 1.7 4.325t4.35 1.725Zm0-6.05Z"/></svg>

<svg xmlns="http://www.w3.org/2000/svg" height="48" width="48"><path d="M39.2 16Q38.85 16 38.6 15.825Q38.35 15.65 38.15 15.3L36.7 12.25L33.65 10.85Q33.3 10.65 33.125 10.4Q32.95 10.15 32.95 9.75Q32.95 9.4 33.125 9.125Q33.3 8.85 33.65 8.65L36.7 7.25L38.15 4.15Q38.35 3.8 38.6 3.65Q38.85 3.5 39.2 3.5Q39.55 3.5 39.825 3.65Q40.1 3.8 40.35 4.15L41.75 7.25L44.8 8.65Q45.15 8.85 45.325 9.125Q45.5 9.4 45.5 9.75Q45.5 10.15 45.325 10.4Q45.15 10.65 44.8 10.85L41.75 12.25L40.35 15.3Q40.1 15.65 39.825 15.825Q39.55 16 39.2 16ZM43.3 32.3Q43.1 32.3 42.9 32.2Q42.7 32.1 42.65 31.9L41.85 30.15L40.1 29.35Q40 29.3 39.7 28.7Q39.7 28.55 39.8 28.325Q39.9 28.1 40.1 28L41.85 27.2L42.65 25.45Q42.7 25.35 43.3 25.1Q43.5 25.1 43.725 25.2Q43.95 25.3 44 25.45L44.8 27.2L46.5 28Q46.65 28.05 46.9 28.7Q46.9 28.9 46.8 29.1Q46.7 29.3 46.5 29.35L44.8 30.15L44 31.9Q43.9 32 43.3 32.3ZM16.75 45.4Q15.85 45.4 15.2 44.825Q14.55 44.25 14.45 43.35L14.2 40.6Q13.7 40.65 13.1 40.4Q12.5 40.15 12.15 39.8L9.95 40.7Q9.2 41.1 8.4 40.8Q7.6 40.5 7.15 39.8L3.9 34.6Q3.45 33.85 3.675 32.925Q3.9 32 4.65 31.45L6.8 30.15Q6.55 29.5 6.55 29.075Q6.55 28.65 6.8 28L4.65 26.65Q3.9 26.1 3.675 25.2Q3.45 24.3 3.9 23.55L7.15 18.35Q7.6 17.65 8.4 17.35Q9.2 17.05 9.95 17.4L12.15 18.35Q12.5 17.95 13.1 17.725Q13.7 17.5 14.2 17.5L14.45 14.75Q14.55 13.85 15.2 13.275Q15.85 12.7 16.75 12.7H22.9Q23.75 12.7 24.4 13.275Q25.05 13.85 25.2 14.75L25.5 17.5Q25.95 17.5 26.525 17.725Q27.1 17.95 27.55 18.35L29.65 17.4Q30.4 17.05 31.2 17.375Q32 17.7 32.45 18.35L35.7 23.55Q36.15 24.3 35.95 25.225Q35.75 26.15 35.05 26.65L32.9 28Q33.1 28.65 33.1 29.075Q33.1 29.5 32.9 30.15L35.05 31.45Q35.75 32 35.95 32.925Q36.15 33.85 35.7 34.6L32.45 39.8Q32.05 40.5 31.225 40.8Q30.4 41.1 29.65 40.7L27.55 39.8Q27.1 40.2 26.525 40.425Q25.95 40.65 25.5 40.6L25.2 43.35Q25.05 44.25 24.4 44.825Q23.75 45.4 22.9 45.4ZM19.85 35.1Q22.4 35.1 24.125 33.375Q25.85 31.65 25.85 29.05Q25.85 26.5 24.125 24.75Q22.4 23 19.8 23Q17.2 23 15.5 24.75Q13.8 26.5 13.8 29.05Q13.8 31.65 15.5 33.375Q17.2 35.1 19.85 35.1ZM19.85 29.05Z"/></svg>
